X:1
T:Title
%%score 1 2
L:1/8
Q:1/4=130
M:6/4
K:Ab
V:1 treble nm="Grand Piano, Soprano"
V:2 bass nm="Choir Pad, Still He Is Pleading"
V:1
 [Ec]2 [Fd]2 [Ec]2 [Ec]2 [CA]2 [CE]2 | [DF]2 [FA]3 [DF] [CE]6 | [Ec]2 [Fc]2 [Ac]2 [Gd]6 | %3
w: By~Corydon~Benjamin~Hopkins * * * * *|||
 [Bd]2 [Gd]2 [Fd]2 [Ec]6 | [Ec]2 [Fd]2 [Ec]2 [Ec]2 [=D_c]2 [E=c]2 | [CA]2 [EB]2 [_Gc]2 [Fd]6 | %6
w: |||
 [DG]2 [DE]2 [Fd]2 [Ec]4 [DB]2 | [CA]12 | [EB]2 [E=A]2 [EB]2 [Ed]2 [Ec]2 [E_c]2 | %9
w: |||
 [Ec]2 [FA]3 [DF] [CE]6 | [Ec]2 [Fc]2 [Ac]2 [Gd]6 | [Bd]2 [Gd]2 [Fd]2 [Ec]6 | %12
w: |||
 [Ae]2 [A=d]2 [Ae]2 [Ec]2 [EB]2 [EA]2 | [DF]2 [FA]2 [=EB]2 [_Ec]6 | %14
w: ||
 [Fd]3 [Ec] [EA]2 E2 [DG]2 [DB]2 | [CA]12 |] %16
w: ||
V:2
 [A,,A,]6 [E,A,]4 [A,,A,]2 | [D,A,]6 [A,,A,]6 | [E,A,]6 [E,B,]6 | [E,G,]6 [A,,A,]6 | %4
 [A,,A,]6 [A,,A,]6 | [F,A,]2 [E,G,]2 [A,,A,]2 [D,A,]6 | [E,,E,]6 [E,G,]6 | [A,,A,]12 | %8
 [E,G,]2 [E,_G,]2 [E,=G,]2 [E,B,]2 [E,A,]2 [E,G,]2 | [A,,A,]2 [D,A,]3 [F,A,] A,6 | %10
 [E,A,]2 [E,A,]2 [E,E]2 [B,E]6 | [E,E]2 [E,B,]2 [E,G,]2 [A,,A,]6 | %12
 [A,C]2 [A,_C]2 [A,=C]2 [A,,A,]2 [_C,G,]2 [=C,A,]2 | [D,A,]2 [D,A,]2 [D,A,]2 [A,,A,]6 | %14
 [D,A,]3 [E,A,] [E,C]2 [E,D]2 [E,B,]2 [E,G,]2 | [A,,A,]12 |] %16

